src/16/actions/zoom-out-y.svg

<svg xmlns="http://www.w3.org/2000/svg" viewBox="0 0 16 16">
  <defs id="defs3051">
    <style type="text/css" id="current-color-scheme">
      .ColorScheme-Text {
        color:#5d656b;
      }
      </style>
  </defs>
 <path style="fill:currentColor;fill-opacity:1;stroke:none" 
       d="M 2 2 L 2 6 L 6 6 L 6 2 L 2 2 z M 7 2 L 7 3 L 9 3 L 12 3 L 13 3 L 13 4 L 13 6 L 14 6 L 14 4 L 14 2 L 13 2 L 12 2 L 9 2 L 7 2 z M 3 3 L 5 3 L 5 5 L 3 5 L 3 3 z M 2 7 L 2 9 L 2 12 L 2 13 L 2 14 L 3 14 L 4 14 L 7 14 L 7 13 L 4 13 L 3 13 L 3 12 L 3 9 L 3 7 L 2 7 z M 10 7.4296875 L 10 12.085938 L 8.3789062 10.464844 L 7.671875 11.171875 L 9.7929688 13.292969 L 10.5 14 L 13.328125 11.171875 L 12.621094 10.464844 L 11 12.085938 L 11 7.4296875 L 10 7.4296875 z "
     class="ColorScheme-Text"
     />
</svg>

<svg xmlns="http://www.w3.org/2000/svg" viewBox="0 0 16 16"><path d="M2 2v4h4V2H2zm5 0v1h6v3h1V2H7zM3 3h2v2H3V3zM2 7v7h5v-1H3V7H2zm8 .43v4.656l-1.621-1.621-.707.707 2.121 2.121.707.707 2.828-2.828-.707-.707L11 12.085V7.43h-1z" fill="currentColor" color="#5d656b"/></svg>
